packages/core/src/svgs/tokens/mono/FTM.svg

<svg width="24" height="24" viewBox="0 0 24 24" fill="none" xmlns="http://www.w3.org/2000/svg">
<path fill-rule="evenodd" clip-rule="evenodd" d="M11.9657 2L6.00073 5.385V18.5149L11.9657 22L18.0007 18.5149V5.385L11.9657 2ZM12 2.99975L7.49992 5.69975L12 8.32474L16.4999 5.69975L12 2.99975ZM6.99992 6.49974V10.9998L10.9999 8.75975L6.99992 6.49974ZM12.4999 9.74979V14.2497L16.4999 12.0097L12.4999 9.74979ZM16.9999 6.49974V10.9998L12.9999 8.75975L16.9999 6.49974ZM11.4999 9.74979V14.2497L7.49992 12.0097L11.4999 9.74979ZM6.99992 12.7797V17.9997L12 20.9997L16.9999 17.9997V12.7797L12 15.4997L6.99992 12.7797Z" fill="white"/>
<path d="M3.5 19.5947V16.4997H4.49999V19.0997L6.99999 20.3897V21.4998L3.5 19.5947ZM20.5 4.40476V7.49975H19.4999V4.89976L17 3.60976V2.49976L20.5 4.40476Z" fill="white"/>
</svg>

<svg xmlns="http://www.w3.org/2000/svg" width="24" height="24" fill="none" viewBox="0 0 24 24">
    <path fill="#fff" fill-rule="evenodd" d="M11.966 2 6 5.385v13.13L11.966 22 18 18.515V5.385zM12 3 7.5 5.7 12 8.325 16.5 5.7zM7 6.5V11l4-2.24zm5.5 3.25v4.5l4-2.24zM17 6.5V11l-4-2.24zm-5.5 3.25v4.5l-4-2.24zM7 12.78V18l5 3 5-3v-5.22l-5 2.72z" clip-rule="evenodd"/>
    <path fill="#fff" d="M3.5 19.595V16.5h1v2.6L7 20.39v1.11zm17-15.19V7.5h-1V4.9L17 3.61V2.5z"/>
</svg>
